icons/2_Variations/Wordpress bg.var.svg

<svg xmlns="http://www.w3.org/2000/svg" width="1024" height="1024" fill="none">
   <g clip-path="url(#a)">
      <path fill="#728DBE" d="M512 1024c282.77 0 512-229.23 512-512S794.77 0 512 0 0 229.23 0 512s229.23 512 512 512Z"/>
      <path fill="#fff" d="M512 271.36a239.452 239.452 0 0 1 134.53 41.09 241.384 241.384 0 0 1 87.2 105.89 240.312 240.312 0 0 1-22.18 228.2 241.384 241.384 0 0 1-105.89 87.2 240.312 240.312 0 0 1-228.2-22.18 241.384 241.384 0 0 1-87.2-105.89 240.312 240.312 0 0 1 22.18-228.2 241.384 241.384 0 0 1 105.89-87.2A239.117 239.117 0 0 1 512 271.36Zm0-15.36c-141.39 0-256 114.61-256 256s114.61 256 256 256 256-114.62 256-256-114.61-256-256-256ZM298.67 512A213.354 213.354 0 0 0 418.9 704L317.14 425.17A212.5 212.5 0 0 0 298.67 512ZM656 501.23c0-26.37-9.47-44.63-17.59-58.83-10.82-17.58-21-32.45-21-50 0-19.61 14.87-37.86 35.82-37.86.95 0 1.84.11 2.76.17a213.286 213.286 0 0 0-256.756-23.81 213.286 213.286 0 0 0-65.554 63.95c5 .16 9.73.26 13.73.26 22.31 0 56.86-2.71 56.86-2.71 11.49-.67 12.85 16.22 1.36 17.58 0 0-11.56 1.35-24.41 2L459 643.05l46.69-140L472.43 412c-11.49-.67-22.37-2-22.37-2-11.5-.68-10.15-18.25 1.35-17.58 0 0 35.22 2.71 56.18 2.71 22.31 0 56.86-2.71 56.86-2.71 11.5-.67 12.85 16.22 1.36 17.58 0 0-11.57 1.35-24.41 2l77.1 229.32 22-69.74c9.78-30.48 15.51-52.07 15.51-70.32m-140.26 29.39-64 186a213.43 213.43 0 0 0 131.12-3.4 19.389 19.389 0 0 1-1.53-2.94l-65.59-179.66Zm183.46-121a163.778 163.778 0 0 1 1.43 21.93c0 21.64-4.05 46-16.23 76.41l-65.15 188.39a213.364 213.364 0 0 0 79.95-286.73Z"/>
   </g>
   <defs>
      <clipPath id="a">
         <path fill="#fff" d="M0 0h1024v1024H0z"/>
      </clipPath>
   </defs>
</svg>

<svg width="1024" height="1024" viewBox="0 0 1024 1024" fill="none" xmlns="http://www.w3.org/2000/svg">
<g clip-path="url(#clip0_3_341)">
<path d="M512 1024C794.77 1024 1024 794.77 1024 512C1024 229.23 794.77 0 512 0C229.23 0 0 229.23 0 512C0 794.77 229.23 1024 512 1024Z" fill="#728DBE"/>
<path d="M512 271.36C559.946 271.279 606.812 285.594 646.53 312.45C685.225 338.571 715.515 375.353 733.73 418.34C749.337 455.214 755.483 495.403 751.61 535.256C747.736 575.109 733.966 613.362 711.55 646.54C685.429 685.235 648.647 715.525 605.66 733.74C568.786 749.347 528.597 755.493 488.744 751.62C448.891 747.746 410.638 733.976 377.46 711.56C338.765 685.439 308.475 648.657 290.26 605.67C274.653 568.796 268.507 528.607 272.38 488.754C276.254 448.901 290.024 410.648 312.44 377.47C338.561 338.775 375.343 308.485 418.33 290.27C447.963 277.728 479.822 271.297 512 271.36ZM512 256C370.61 256 256 370.61 256 512C256 653.39 370.61 768 512 768C653.39 768 768 653.38 768 512C768 370.62 653.39 256 512 256ZM298.67 512C298.662 552.064 309.934 591.32 331.197 625.276C352.46 659.231 382.854 686.514 418.9 704L317.14 425.17C304.939 452.49 298.645 482.079 298.67 512ZM656 501.23C656 474.86 646.53 456.6 638.41 442.4C627.59 424.82 617.41 409.95 617.41 392.4C617.41 372.79 632.28 354.54 653.23 354.54C654.18 354.54 655.07 354.65 655.99 354.71C633.214 333.847 606.178 318.18 576.753 308.792C547.327 299.404 516.214 296.519 485.564 300.336C454.914 304.153 425.458 314.582 399.234 330.9C373.01 347.219 350.643 369.038 333.68 394.85C338.68 395.01 343.41 395.11 347.41 395.11C369.72 395.11 404.27 392.4 404.27 392.4C415.76 391.73 417.12 408.62 405.63 409.98C405.63 409.98 394.07 411.33 381.22 411.98L459 643.05L505.69 503.05L472.43 412C460.94 411.33 450.06 410 450.06 410C438.56 409.32 439.91 391.75 451.41 392.42C451.41 392.42 486.63 395.13 507.59 395.13C529.9 395.13 564.45 392.42 564.45 392.42C575.95 391.75 577.3 408.64 565.81 410C565.81 410 554.24 411.35 541.4 412L618.5 641.32L640.5 571.58C650.28 541.1 656.01 519.51 656.01 501.26M515.75 530.65L451.75 716.65C494.73 729.308 540.604 728.118 582.87 713.25C582.277 712.315 581.765 711.332 581.34 710.31L515.75 530.65ZM699.21 409.65C700.177 416.92 700.655 424.246 700.64 431.58C700.64 453.22 696.59 477.58 684.41 507.99L619.26 696.38C667.317 668.424 702.564 622.814 717.497 569.26C732.429 515.706 725.868 458.439 699.21 409.65Z" fill="white"/>
</g>
<defs>
<clipPath id="clip0_3_341">
<rect width="1024" height="1024" fill="white"/>
</clipPath>
</defs>
</svg>
